Simply-Purple-Circles/scalable/panel/avatar-default.svg

<svg xmlns="http://www.w3.org/2000/svg" width="24" height="24" viewBox="0 0 6.35 6.35"><path d="M3.17.3A2.87 2.87 0 0 0 .31 3.19a2.87 2.87 0 0 0 2.86 2.86 2.87 2.87 0 0 0 2.88-2.87A2.87 2.87 0 0 0 3.17.31zm0 .43A2.47 2.47 0 0 1 5.63 3.2a2.47 2.47 0 0 1-2.46 2.47A2.47 2.47 0 0 1 .7 3.2 2.47 2.47 0 0 1 3.17.73zm.01.4c-.42 0-.76.3-.76.69 0 .13.02.3.1.68.04.1.28.32.41.46a.3.3 0 0 1-.03.16c-.44.15-1.22.43-1.27.61l-.11.98c.77.42 2.57.4 3.31 0-.03-.2-.05-.78-.08-.98-.2-.23-.71-.37-1.26-.61A.24.24 0 0 1 3.44 3c.11-.13.37-.4.4-.51.1-.4.1-.54.11-.68 0-.38-.34-.69-.77-.69z" fill="#963996"/></svg>

<?xml version="1.0" encoding="UTF-8" standalone="no"?>
<svg
   xmlns:dc="http://purl.org/dc/elements/1.1/"
   xmlns:cc="http://creativecommons.org/ns#"
   xmlns:rdf="http://www.w3.org/1999/02/22-rdf-syntax-ns#"
   xmlns:svg="http://www.w3.org/2000/svg"
   xmlns="http://www.w3.org/2000/svg"
   xmlns:sodipodi="http://sodipodi.sourceforge.net/DTD/sodipodi-0.dtd"
   xmlns:inkscape="http://www.inkscape.org/namespaces/inkscape"
   width="24"
   height="24"
   viewBox="0 0 6.35 6.35"
   version="1.1"
   id="svg4"
   sodipodi:docname="avatar-default.svg"
   inkscape:version="0.92.4 (5da689c313, 2019-01-14)">
  <metadata
     id="metadata10">
    <rdf:RDF>
      <cc:Work
         rdf:about="">
        <dc:format>image/svg+xml</dc:format>
        <dc:type
           rdf:resource="http://purl.org/dc/dcmitype/StillImage" />
        <dc:title></dc:title>
      </cc:Work>
    </rdf:RDF>
  </metadata>
  <defs
     id="defs8" />
  <sodipodi:namedview
     pagecolor="#ffffff"
     bordercolor="#666666"
     borderopacity="1"
     objecttolerance="10"
     gridtolerance="10"
     guidetolerance="10"
     inkscape:pageopacity="0"
     inkscape:pageshadow="2"
     inkscape:window-width="1087"
     inkscape:window-height="480"
     id="namedview6"
     showgrid="false"
     inkscape:zoom="9.8333333"
     inkscape:cx="1.0677966"
     inkscape:cy="12"
     inkscape:window-x="0"
     inkscape:window-y="25"
     inkscape:window-maximized="0"
     inkscape:current-layer="svg4" />
  <path
     d="M 3.17,0.3 A 2.87,2.87 0 0 0 0.31,3.19 2.87,2.87 0 0 0 3.17,6.05 2.87,2.87 0 0 0 6.05,3.18 2.87,2.87 0 0 0 3.17,0.31 Z m 0,0.43 A 2.47,2.47 0 0 1 5.63,3.2 2.47,2.47 0 0 1 3.17,5.67 2.47,2.47 0 0 1 0.70000003,3.2 2.47,2.47 0 0 1 3.17,0.73 Z m 0.01,0.4 c -0.42,0 -0.76,0.3 -0.76,0.69 0,0.13 0.02,0.3 0.1,0.68 0.04,0.1 0.28,0.32 0.41,0.46 A 0.3,0.3 0 0 1 2.9,3.12 C 2.46,3.27 1.68,3.55 1.63,3.73 L 1.52,4.71 c 0.77,0.42 2.57,0.4 3.31,0 C 4.8,4.51 4.78,3.93 4.75,3.73 4.55,3.5 4.04,3.36 3.49,3.12 A 0.24,0.24 0 0 1 3.44,3 C 3.55,2.87 3.81,2.6 3.84,2.49 3.94,2.09 3.94,1.95 3.95,1.81 3.95,1.43 3.61,1.12 3.18,1.12 Z"
     id="path2"
     inkscape:connector-curvature="0"
     style="fill:#963996" />
</svg>
